packages/symbols/svgs/solid/ban-solid.svg

<svg width="16" height="16" viewBox="0 0 16 16" xmlns="http://www.w3.org/2000/svg"><g clip-path="url(#a)"><path d="M8 0C3.6 0 0 3.6 0 8s3.6 8 8 8 8-3.6 8-8-3.6-8-8-8Zm0 2c1.3 0 2.5.4 3.5 1.1l-8.4 8.4C2.4 10.5 2 9.3 2 8c0-3.3 2.7-6 6-6Zm0 12c-1.3 0-2.5-.4-3.5-1.1l8.4-8.4c.7 1 1.1 2.2 1.1 3.5 0 3.3-2.7 6-6 6Z"/></g><defs><clipPath id="a"><path fill="#fff" d="M0 0h16v16H0z"/></clipPath></defs></svg>

<svg width="16" height="16" viewBox="0 0 16 16" fill="none" xmlns="http://www.w3.org/2000/svg">
<g clip-path="url(#clip0_219_2155)">
<path d="M8 0C3.6 0 0 3.6 0 8C0 12.4 3.6 16 8 16C12.4 16 16 12.4 16 8C16 3.6 12.4 0 8 0ZM8 2C9.3 2 10.5 2.4 11.5 3.1L3.1 11.5C2.4 10.5 2 9.3 2 8C2 4.7 4.7 2 8 2ZM8 14C6.7 14 5.5 13.6 4.5 12.9L12.9 4.5C13.6 5.5 14 6.7 14 8C14 11.3 11.3 14 8 14Z" fill="black"/>
</g>
<defs>
<clipPath id="clip0_219_2155">
<rect width="16" height="16" fill="white"/>
</clipPath>
</defs>
</svg>
